Arsenal/img/howWeWorkIcon7.svg

<svg width="40" height="40" viewBox="0 0 40 40" fill="none" xmlns="http://www.w3.org/2000/svg">
<path d="M26.7772 10.6188H10.2443V4.96619L1.16406 14.0469L10.2443 23.1271V17.285H26.7772C29.6558 17.285 31.998 19.6271 31.998 22.5058C31.998 25.3846 29.6558 27.7265 26.7772 27.7265H7.92287V34.3927H26.7772C33.3316 34.3927 38.6641 29.0604 38.6641 22.5058C38.6641 15.9512 33.3316 10.6188 26.7772 10.6188Z" fill="#DE6518"/>
</svg>

<svg width="40" height="40" fill="none" xmlns="http://www.w3.org/2000/svg"><path d="M26.777 10.619H10.244V4.966l-9.08 9.08 9.08 9.081v-5.842h16.533a5.227 5.227 0 015.221 5.22 5.227 5.227 0 01-5.22 5.222H7.922v6.666h18.854c6.555 0 11.887-5.333 11.887-11.887 0-6.555-5.332-11.887-11.887-11.887z" fill="#DE6518"/></svg>
